X:1
T:Title
%%score { ( 1 3 4 ) | ( 2 5 ) }
L:1/8
M:4/4
K:C
V:1 treble nm="Grand Piano"
V:3 treble 
V:4 treble 
V:2 bass 
V:5 bass 
V:1
 z4 z2[Q:1/4=100] [EG][EG] | [Ec]2 [Fc]2 [Ec]2 [EG]2 | [FA]>[GB] [Ac]>[FA] [EG]2 [EG][EG] | %3
 [Ec]3 [Gc] [^Fe]2 [Fd]2 |[M:3/4] d6 |[M:1/4] GG |[M:4/4] [Ec]2 [Fc]2 [Ec]2 [EG]2 | %7
 [FA]>[GB] [Ac]>[FA] [EG]2 [Gc][Ad] | e3 e c2 d2 | [Ec]6 (3GAB | %10
 c-[CEc-] [B,Fc-]>[A,Fc-] [G,Ec][Gd] [Ac]>A | z z/ E/ FF E2 (3GAc | %12
 e-[Ge-] [Ge-]>[Ge-] ec z z/ d/ | d6 z2 | c6 z2 | z c3- c2 z2 | e6 z2 |[M:3/4] c6 |] %18
V:2
 z4 z2 [C,C][C,C] | [C,G,]2 [C,A,]2 [C,G,]2 [C,C]2 | [F,C]>[F,C] [F,C]>[F,C] [C,C]2 [C,C][C,C] | %3
 [C,G,]3 [E,C] [D,A,]2 [D,C]2 |[M:3/4][K:treble] [G,B,G]6 |[M:1/4] [G,B,F][G,B,F] | %6
[M:4/4][K:bass] [C,C]2 [C,A,]2 [C,G,]2 [C,C]2 | [F,C]>[F,C] [F,C]>[F,C] [C,C]2 [E,C][F,C] | %8
 [G,CG]3 [G,CG] [G,CE]2 [G,F]2 | [C,G,]6 z2 | [C,G,]G,, A,,>B,, C,[E,C] [F,C]>[F,CF] | %11
 [E,CE]>[E,C] [G,B,][G,B,] [C,C]2 z2 | z4 D2[K:treble] z2 | %13
 [G,B,G]>[G,B,][K:bass] [D,C][D,C] [G,B,]2 z2 | [C,G,]G,,A,,B,, C,[E,C] [F,C]>[F,C] | %15
 [C,C][C,C][E,C][K:treble][G,C] [CE][CE] z2 | [G,CG][G,C] [G,C]>[G,C] [G,C][A,CE] [G,B,G]>[G,B,F] | %17
[M:3/4][K:bass] z E D>A, G,2 |] %18
V:3
 x8 | x8 | x8 | x8 |[M:3/4] x6 |[M:1/4] x2 |[M:4/4] x8 | x8 | x8 | x8 | .E2 z2 z4 | G6 z2 | %12
 .G2 z2 G2 e2 | z z/ G/ ^FF G2 (3GAB | E[G,E][B,F][A,F] [G,E][Gd] [Ac]>[FA] | [EG]EGE GG (3GAc | %16
 z G G>G Gc e>d |[M:3/4] [CE]G A/GF/ E2 |] %18
V:4
 x8 | x8 | x8 | x8 |[M:3/4] x6 |[M:1/4] x2 |[M:4/4] x8 | x8 | x8 | x8 | x8 | x8 | z4 z2 z ^F | x8 | %14
 x8 | x8 | x8 |[M:3/4] x6 |] %18
V:5
 x8 | x8 | x8 | x8 |[M:3/4][K:treble] x6 |[M:1/4] x2 |[M:4/4][K:bass] x8 | x8 | x8 | x8 | x8 | x8 | %12
 [C,C][C,C] [E,C]>[G,C] z[K:treble] E[A,D^F][A,C] | x2[K:bass] x6 | x8 | x3[K:treble] x5 | x8 | %17
[M:3/4][K:bass] C,6 |] %18

